X:1
T:Comfort, Comfort Now My People
T:Text: Johannes G. Olearius (1611-1684); tr. Catherine Winkworth (1827-1878), alt. Tune: Louis Bourgeois (ca. 1510-1561), Genevan Psalter, 1551
T:87 87 77 88 GENEVAN 42 www.hymnary.org/text/comfort_comfort_now_my_people
T:Comfort, Comfort Now My People
T:This hymn is in the public domain.  You may freely use this score for personal and congregational worship.  If you reproduce the score, please credit Hymnary.org as the source. 
T:This hymn is in the public domain.  You may freely use this score for personal and congregational worship.  If you reproduce the score, please credit Hymnary.org as the source. 
Z:This hymn is in the public domain.  You may freely use this score for personal and congregational worship.  If you reproduce the score, please credit Hymnary.org as the source.
%%score ( 1 2 ) ( 3 4 )
L:1/8
M:12/4
K:F
V:1 treble nm="Piano" snm="Pno."
V:2 treble 
V:3 bass nm="Piano" snm="Pno."
V:4 bass 
V:1
 [CF]4 [CG]2 [CA]4 [CG]2 [A,F]2 [CE]2 D4 C4 | [CF]4 [DG]2 [FA]4 [DB]2 A4 G4 [CF]4 | %2
w: 3~Straight shall be what long was crook- ed,|and the rough- er pla- ces plain!|
w: 1~"Com- fort, com- fort now my peo- ple;|tell of peace!" so says our God.|
w: 2~For the he- rald's voice is cry- ing|in the de- sert far and near,|
 [CF]4 [CG]2 [CA]4 [CG]2 [A,F]2 [CE]2 D4 C4 | [CF]4 [DG]2 [FA]4 [DB]2 A4 G4 [CF]4 | %4
w: Let your hearts be true and hum- ble,|as be- fits his ho- ly reign!|
w: Com- fort those who sit in dark- ness|mour- ning un- der sor- row's load.|
w: cal- ling us to true re- pen- tance|since the King- dom now is here.|
 [FA]4 [FA]2 [Fc]4 [GB]2 [FA]2 [EG]2 [FA]4 | [Fc]4 [Fc]2 [Fd]4 [Ec]2 [FB]2 [FA]2 [EG]4 | %6
w: For the glo- ry of the Lord|now on earth is shed a- broad,|
w: To God's peo- ple now pro- claim|that God's par- don waits for them!|
w: Oh, that war- ning cry o- bey!|Now pre- pare for God a way!|
 [FA]4 [Fc]2 [FB]4 [EA]2 [DF]2 [DG]2 A4 [DF]4 | %7
w: and all flesh shall see the to- ken|
w: Tell them that their war is o- ver;|
w: Let the val- leys rise to meet him,|
 [=CA]4 [FA]2 [GB]4 [FA]2 [DG]2 [CF]2 (([DF]2 [CE]2)) [CF]4 |] %8
w: that God's word is ne- ver bro- * ken.|
w: God will reign in peace for- e- * ver!|
w: and the hills bow down to greet _ him!|
V:2
 x16 (C2 =B,2) C4 | x12 F6 E2 x4 | x16 (C2 =B,2) C4 | x12 F6 E2 x4 | x20 | x20 | x16 (D2 ^C2) x4 | %7
 x24 |] %8
V:3
 [F,A,]4 [E,G,]2 F,4 [C,E,]2 [D,F,]2 [E,G,]2 G,4 [C,E,]4 | %1
 [A,,F,]4 [B,,B,]2 [D,A,]4 [G,,G,]2 C4 [C,C]4 [F,A,]4 | %2
 [F,A,]4 [E,G,]2 F,4 [C,E,]2 [D,F,]2 [E,G,]2 G,4 [C,E,]4 | %3
 [A,,F,]4 [B,,B,]2 [D,A,]4 [G,,G,]2 C4 [C,C]4 [F,A,]4 | %4
 [F,C]4 [D,D]2 [A,,C]4 [G,,D]2 [A,,C]2 [C,C]2 [F,C]4 | %5
 [F,A,]4 [A,,F,]2 [B,,B,]4 [C,G,]2 [D,B,]2 [F,C]2 [C,C]4 | %6
 [F,C]4 [A,,C]2 [B,,D]4 [C,C]2 [D,A,]2 [B,,G,]2 (E,2 A,2) [D,A,]4 | %7
 [F,A,]4 [D,D]2 [G,,D]4 [A,,C]2 [B,,B,]2 [A,,C]2 (([B,,B,]2 [C,G,]2)) [F,A,]4 |] %8
V:4
 x6 F,4 x6 G,4 x4 | x12 (A,,2 B,,2) x8 | x6 F,4 x6 G,4 x4 | x12 (A,,2 B,,2) x8 | x20 | x20 | %6
 x16 A,,4 x4 | x24 |] %8

